svgs/novaprime.svg

<svg xmlns="http://www.w3.org/2000/svg" viewBox="0 0 192 192"><path d="m172.828 75.465-30.296-22.864-16.43 4.387V39.946L95.922 16.5 65.937 39.791v17.041l-16.624-4.231-30.296 22.864 8.778 20.613-8.778 20.612 30.296 22.864 16.469-4.386v17.041L95.767 175.5l30.024-23.291v-17.041l16.741 4.386 30.451-22.864-8.894-20.612ZM112.08 96.078a18.79 18.79 0 0 1 0 2.096l4.545 3.571a1.051 1.051 0 0 1 .233 1.359l-4.312 7.453a1.006 1.006 0 0 1-1.281.466l-5.36-2.135a17.131 17.131 0 0 1-3.652 2.096l-.815 5.706a1.05 1.05 0 0 1-1.049.893h-8.778a1.05 1.05 0 0 1-1.049-.893l-.815-5.706a17.842 17.842 0 0 1-3.652-2.096l-5.36 2.135a1.084 1.084 0 0 1-1.32-.466l-4.312-7.453a1.132 1.132 0 0 1-.098-.726c.05-.246.18-.469.37-.633l4.545-3.571a14.233 14.233 0 0 1 0-4.193l-4.545-3.571a1.132 1.132 0 0 1-.37-.632 1.13 1.13 0 0 1 .098-.726l4.312-7.454a1.05 1.05 0 0 1 1.32-.465l5.36 2.173c1.11-.88 2.34-1.599 3.652-2.135l.815-5.706a1.05 1.05 0 0 1 1.049-.893h8.623a1.046 1.046 0 0 1 1.048.893l.816 5.706a16.39 16.39 0 0 1 3.651 2.135l5.36-2.173a1.087 1.087 0 0 1 1.321.465l4.311 7.454a1.083 1.083 0 0 1-.272 1.358l-4.544 3.571c.09.696.142 1.396.155 2.097Zm-46.143-39.09v78.18m60.01-78.18v78.18" fill="none" stroke="#000" stroke-width="8" stroke-linecap="round" stroke-linejoin="round"/></svg>

<svg
    xmlns="http://www.w3.org/2000/svg"
    viewBox="0 0 192 192"
    id="vector">
    <path
        id="path"
        d="M 172.828 75.465 L 142.532 52.601 L 126.102 56.988 L 126.102 39.946 L 95.922 16.5 L 65.937 39.791 L 65.937 56.832 L 49.313 52.601 L 19.017 75.465 L 27.795 96.078 L 19.017 116.69 L 49.313 139.554 L 65.782 135.168 L 65.782 152.209 L 95.767 175.5 L 125.791 152.209 L 125.791 135.168 L 142.532 139.554 L 172.983 116.69 L 164.089 96.078 Z M 112.08 96.078 C 112.119 96.776 112.119 97.476 112.08 98.174 L 116.625 101.745 C 116.821 101.905 116.953 102.131 116.996 102.381 C 117.039 102.63 116.99 102.887 116.858 103.104 L 112.546 110.557 C 112.43 110.781 112.233 110.953 111.996 111.039 C 111.759 111.125 111.498 111.119 111.265 111.023 L 105.905 108.888 C 104.779 109.734 103.552 110.438 102.253 110.984 L 101.438 116.69 C 101.4 116.94 101.273 117.169 101.081 117.333 C 100.888 117.497 100.642 117.586 100.389 117.583 L 91.611 117.583 C 91.358 117.586 91.112 117.497 90.919 117.333 C 90.727 117.169 90.6 116.94 90.562 116.69 L 89.747 110.984 C 88.451 110.432 87.225 109.728 86.095 108.888 L 80.735 111.023 C 80.496 111.113 80.232 111.116 79.99 111.03 C 79.749 110.945 79.545 110.777 79.415 110.557 L 75.103 103.104 C 74.991 102.879 74.956 102.624 75.005 102.378 C 75.055 102.132 75.185 101.909 75.375 101.745 L 79.92 98.174 C 79.713 96.784 79.713 95.371 79.92 93.981 L 75.375 90.41 C 75.185 90.246 75.055 90.024 75.005 89.778 C 74.956 89.531 74.991 89.276 75.103 89.052 L 79.415 81.598 C 79.539 81.372 79.742 81.199 79.986 81.113 C 80.23 81.027 80.497 81.034 80.735 81.133 L 86.095 83.306 C 87.205 82.426 88.435 81.707 89.747 81.171 L 90.562 75.465 C 90.6 75.215 90.727 74.986 90.919 74.822 C 91.112 74.658 91.358 74.569 91.611 74.572 L 100.234 74.572 C 100.487 74.569 100.733 74.658 100.925 74.822 C 101.118 74.986 101.245 75.215 101.282 75.465 L 102.098 81.171 C 103.402 81.722 104.63 82.44 105.749 83.306 L 111.109 81.133 C 111.349 81.042 111.613 81.04 111.855 81.125 C 112.096 81.21 112.3 81.378 112.43 81.598 L 116.741 89.052 C 116.861 89.274 116.9 89.532 116.85 89.78 C 116.8 90.028 116.666 90.251 116.469 90.41 L 111.925 93.981 C 112.015 94.677 112.067 95.377 112.08 96.078 Z M 65.937 56.988 L 65.937 135.168 M 125.947 56.988 L 125.947 135.168"
        fill="none"
        stroke="#000000"
        stroke-width="8"
        stroke-linecap="round"
        stroke-linejoin="round"/>
</svg>
